X:1
T:Viva, viva
T:Viva, viva
T:Antonio Salieri (1750-1825)
%%score [ 1 2 3 ]
L:1/8
M:2/2
K:G
V:1 treble nm="I" snm="I"
V:2 treble nm="II" snm="II"
V:3 treble nm="III" snm="III"
V:1
 GA Bc | d2 d2 dc BA | G2 G2 GA Bc | d2 d2 dc BA | G2 G2 B2 d2 | A2 d2 G2 d2 | F2 F2 c2 c2 | %7
w: Vi- * va, _|vi- va la _ bot- *|ti- glia, vi- * va, _|vi- va l'a- * le- *|gri- a; non più|bel- la com- pa-|gni- a nel gran|
 cB AG d2 F2 | G4 z4 | z4 de dc | B2 G2 z4 | z4 de dc | B2 G2 G2 G2 | F2 F2 E2 E2 | D2 D2 A2 A2 | %15
w: mon- * do _ non si|dà.|La _ bo- *|ti- glia,|l'a- * le- *|gri- a, non più|bel- la com- pa-|gni- a nel gran|
 Gd cB B2 A2 | G4 z4 | z8 | d2 G2 z4 | z8 | d2 G2 z2 B2 | z2 A2 z2 G2 | z2 F2 d2 d2 | d2 D2 D2 D2 | %24
w: mon- * do _ non si|dà.||Vi- va,||Vi- va, no,|no, no,|no nel gran|mon- do non si|
 G4 GA Bc | d2 d2 dc BA | G2 G2 GA Bc | d2 d2 dc BA | G2 G2 B2 d2 | A2 d2 G2 d2 | F2 F2 c2 c2 | %31
w: dà. Vi- * va, _|vi- va la _ bot- *|ti- glia, vi- * va, _|vi- va l'a- * le- *|gri- a; non più|bel- la com- pa-|gni- a nel gran|
 cB AG d2 F2 | G4 z4 | z4 de dc | B2 G2 z4 | z4 de dc | B2 G2 G2 G2 | F2 F2 E2 E2 | D2 D2 A2 A2 | %39
w: mon- * do _ non si|dà.|La _ bot- *|ti- glia|l'a- * le- *|gri- a non più|bel- la com- pa-|gni- a nel gran|
 Gd cB B2 A2 | G4 z4 |] %41
w: mon- * do _ non si|dà.|
V:2
 z4 | z8 | z8 | z8 | z8 | z8 | z8 | z8 | z4 GA Bc | d2 d2 dc BA | G2 G2 GA Bc | d2 d2 dc BA | %12
w: ||||||||Vi- * va, _|vi- va la _ bo- *|ti- glia, vi- * va, _|vi- va l'a- * le- *|
 G2 G2 B2 d2 | A2 d2 G2 d2 | F2 F2 c2 c2 | cB AG d2 F2 | G4 z4 | z4 de dc | B2 G2 z4 | z4 de dc | %20
w: gri- a; non più|bel- la com- pa-|gni- a nel gran|mon- * do _ non si|dà.|La _ bo- *|ti- glia,|l'a- * le- *|
 B2 G2 G2 G2 | F2 F2 E2 E2 | D2 D2 A2 A2 | Gd cB B2 A2 | G4 z4 | z8 | d2 G2 z4 | z8 | d2 G2 z2 B2 | %29
w: gri- a, non più|bel- la com- pa-|gni- a nel gran|mon- * do _ non si|dà.||Vi- va,||Vi- va, no,|
 z2 A2 z2 G2 | z2 F2 d2 d2 | d2 D2 D2 D2 | G4 GA Bc | d2 d2 dc BA | G2 G2 GA Bc | d2 d2 dc BA | %36
w: no, no,|no nel gran|mon- do non si|dà. Vi- * va, _|vi- va la _ bot- *|ti- glia, vi- * va, _|vi- va l'a- * le- *|
 G2 G2 B2 d2 | A2 d2 G2 d2 | F2 F2 c2 c2 | cB AG d2 F2 | G4 z4 |] %41
w: gri- a; non più|bel- la com- pa-|gni- a nel gran|mon- * do _ non si|dà.|
V:3
 z4 | z8 | z8 | z8 | z8 | z8 | z8 | z8 | z8 | z8 | z8 | z8 | z8 | z8 | z8 | z8 | z4 GA Bc | %17
w: ||||||||||||||||Vi- * va, _|
 d2 d2 dc BA | G2 G2 GA Bc | d2 d2 dc BA | G2 G2 B2 d2 | A2 d2 G2 d2 | F2 F2 c2 c2 | cB AG d2 F2 | %24
w: vi- va la _ bot- *|ti- glia, vi- * va, _|vi- va l'a- * le- *|gri- a; non più|bel- la com- pa-|gni- a nel gran|mon- * do _ non si|
 G4 z4 | z4 de dc | B2 G2 z4 | z4 de dc | B2 G2 G2 G2 | F2 F2 E2 E2 | D2 D2 A2 A2 | Gd cB B2 A2 | %32
w: dà.|La _ bot- *|ti- glia,|l'a- * le- *|gri- a; non più|bel- la com- pa-|gni- a nel gran|mon- * do _ non si|
 G4 z4 | z8 | d2 G2 z4 | z8 | d2 G2 z2 B2 | z2 A2 z2 G2 | z2 F2 d2 d2 | d2 D2 D2 D2 | G4 z4 |] %41
w: dà.||Vi- va,||Vi- va no,|no, no,|no nel gran|mon- do non si|dà.|

